packages/swarm-icons/src/icons/large/Notif.svg

<svg xmlns="http://www.w3.org/2000/svg" width="28" height="28" viewBox="0 0 28 28">
  <path fill="#212121" d="M12.7777778,5.29004279 L12.0630274,5.5027629 C9.21377001,6.35074337 7.22222222,8.98111005 7.22222222,12 L7.22222222,17.6666667 C7.22222222,18.9596922 6.4041366,19.7777778 5.11111111,19.7777778 C5.04974614,19.7777778 5,19.8275239 5,19.8888889 L5,21.1111111 L23,21.1111111 L23,19.8888889 C23,19.8275239 22.9502539,19.7777778 22.8888889,19.7777778 C21.5958634,19.7777778 20.7777778,18.9596922 20.7777778,17.6666667 L20.7777778,12 C20.7777778,8.98111005 18.78623,6.35074337 15.9369726,5.5027629 L15.2222222,5.29004279 L15.2222222,4.22222222 C15.2222222,3.54720753 14.6750147,3 14,3 C13.3249853,3 12.7777778,3.54720753 12.7777778,4.22222222 L12.7777778,5.29004279 Z M10.8022748,3.82292719 C10.9989332,2.23175485 12.3556207,1 14,1 C15.6443793,1 17.0010668,2.23175485 17.1977252,3.82292719 C20.5166382,5.11965361 22.7777778,8.33885391 22.7777778,12 L22.7777778,17.6666667 C22.7777778,17.8551227 22.7004329,17.7777778 22.8888889,17.7777778 C24.0548234,17.7777778 25,18.7229544 25,19.8888889 L25,21.1111111 C25,22.2156806 24.1045695,23.1111111 23,23.1111111 L5,23.1111111 C3.8954305,23.1111111 3,22.2156806 3,21.1111111 L3,19.8888889 C3,18.7229544 3.94517664,17.7777778 5.11111111,17.7777778 C5.2995671,17.7777778 5.22222222,17.8551227 5.22222222,17.6666667 L5.22222222,12 C5.22222222,8.33885391 7.4833618,5.11965361 10.8022748,3.82292719 Z M12,24.5 L16,24.5 C16.5522847,24.5 17,24.9477153 17,25.5 C17,26.0522847 16.5522847,26.5 16,26.5 L12,26.5 C11.4477153,26.5 11,26.0522847 11,25.5 C11,24.9477153 11.4477153,24.5 12,24.5 Z"/>
</svg>

<svg xmlns="http://www.w3.org/2000/svg" width="28" height="28"><path fill="#212121" d="M12.778 5.29l-.715.213A6.78 6.78 0 007.223 12v5.667c0 1.293-.819 2.11-2.112 2.11A.111.111 0 005 19.89v1.222h18V19.89a.111.111 0 00-.111-.111c-1.293 0-2.111-.818-2.111-2.111V12a6.78 6.78 0 00-4.841-6.497l-.715-.213V4.222a1.222 1.222 0 10-2.444 0V5.29zm-1.976-1.467a3.223 3.223 0 016.396 0A8.782 8.782 0 0122.778 12v5.667c0 .188-.078.11.11.11 1.167 0 2.112.946 2.112 2.112v1.222a2 2 0 01-2 2H5a2 2 0 01-2-2V19.89c0-1.166.945-2.111 2.111-2.111.189 0 .111.077.111-.111V12a8.782 8.782 0 015.58-8.177zM12 24.5h4a1 1 0 010 2h-4a1 1 0 010-2z"/></svg>
